icons/VolumeOn.svg

<svg width="24" height="24" viewBox="0 0 24 24" fill="none" xmlns="http://www.w3.org/2000/svg">
<path fill-rule="evenodd" clip-rule="evenodd" d="M18.1705 4.12785C20.1416 6.27242 21.2355 9.07903 21.2355 11.9918C21.2355 14.9047 20.1416 17.7113 18.1705 19.8558C18.1275 19.9 18.0762 19.9351 18.0194 19.9591C17.9626 19.9831 17.9016 19.9955 17.84 19.9955C17.7784 19.9955 17.7174 19.9831 17.6606 19.9591C17.6038 19.9351 17.5525 19.9 17.5095 19.8558L16.5095 18.8558C16.427 18.7716 16.3808 18.6583 16.3808 18.5403C16.3808 18.4224 16.427 18.3091 16.5095 18.2248C18.0421 16.5323 18.8958 14.3336 18.9068 12.0503C18.9179 9.76708 18.0856 7.56014 16.5695 5.85285L16.5095 5.78285C16.427 5.69856 16.3808 5.5853 16.3808 5.46735C16.3808 5.34939 16.427 5.23613 16.5095 5.15185L17.5095 4.15185C17.5511 4.10634 17.6014 4.06965 17.6575 4.04393C17.7135 4.01822 17.7741 4.00401 17.8358 4.00214C17.8974 4.00028 17.9588 4.0108 18.0163 4.03308C18.0738 4.05536 18.1262 4.08894 18.1705 4.13185V4.12785ZM9.6455 4.12785C9.74329 4.06346 9.85603 4.02538 9.97284 4.01727C10.0896 4.00917 10.2066 4.03131 10.3123 4.08158C10.4181 4.13184 10.5091 4.20851 10.5765 4.3042C10.644 4.39989 10.6857 4.51136 10.6975 4.62785V19.3858C10.6857 19.5023 10.644 19.6138 10.5765 19.7095C10.5091 19.8052 10.4181 19.8819 10.3123 19.9321C10.2066 19.9824 10.0896 20.0045 9.97284 19.9964C9.85603 19.9883 9.74329 19.9502 9.6455 19.8858L6.7305 15.9588H3.2645C3.13776 15.9614 3.01495 15.9149 2.92176 15.8289C2.82857 15.743 2.77221 15.6244 2.7645 15.4978V8.48585C2.77221 8.35932 2.82857 8.24069 2.92176 8.15477C3.01495 8.06884 3.13776 8.02229 3.2645 8.02485H6.7305L9.6455 4.12785ZM14.8245 7.48385C15.9058 8.73685 16.5007 10.3368 16.5007 11.9918C16.5007 13.6469 15.9058 15.2468 14.8245 16.4998C14.7805 16.5459 14.7277 16.5825 14.6692 16.6075C14.6106 16.6325 14.5476 16.6454 14.484 16.6454C14.4203 16.6454 14.3574 16.6325 14.2988 16.6075C14.2403 16.5825 14.1875 16.5459 14.1435 16.4998L13.1435 15.4998C13.0661 15.4149 13.0232 15.3042 13.0232 15.1893C13.0232 15.0745 13.0661 14.9638 13.1435 14.8788C13.7905 14.095 14.1543 13.1158 14.176 12.0997C14.1978 11.0835 13.8763 10.0897 13.2635 9.27885L13.1435 9.12885C13.0661 9.04394 13.0232 8.93321 13.0232 8.81835C13.0232 8.70348 13.0661 8.59275 13.1435 8.50785L14.1435 7.50785C14.1861 7.46052 14.2379 7.42232 14.2957 7.39557C14.3534 7.36881 14.4161 7.35405 14.4797 7.35218C14.5434 7.35031 14.6067 7.36137 14.666 7.38469C14.7253 7.40801 14.7792 7.4431 14.8245 7.48785V7.48385Z" fill="black"/>
</svg>

<svg xmlns="http://www.w3.org/2000/svg" viewBox="0 0 24 24">
  <path d="M18.17 4.128a11.621 11.621 0 010 15.728.461.461 0 01-.66 0l-1-1a.45.45 0 010-.631 9.265 9.265 0 00.06-12.372l-.06-.07a.451.451 0 010-.631l1-1a.46.46 0 01.66-.02v-.004zm-8.525 0a.681.681 0 011.053.5v14.758a.68.68 0 01-1.053.5l-2.914-3.927H3.264a.49.49 0 01-.5-.461V8.486a.49.49 0 01.5-.461H6.73l2.915-3.897zm5.18 3.356a6.9 6.9 0 010 9.016.47.47 0 01-.681 0l-1-1a.46.46 0 010-.621 4.517 4.517 0 00.12-5.6l-.12-.15a.46.46 0 010-.621l1-1a.47.47 0 01.68-.02v-.004z"/>
</svg>
